X:587
T: DER LUNZI KUMMT
N: E1898
O: Europa, Mitteleuropa, Deutschland; Frankreich, Elsass
R: Kinder - Lied, Plumpsack - Spiel
M: 2/4
L: 1/16
K: F
c2 | c3BA2c2 | c3BA2
A2 | c2d2c2d2 | c4A4 |
c2d2c2d2 | c4F4 |
c2d2c2d2 | c4F2

@@@ Tune index: 5271
